X: 161832
T: Porter or Buttermilk
S: B.Breathnach:"Ceol Rince na hEireann" IV/220 (gan ainm)
Z: B.Black
L: 1/8
M: 4/4
R: hornpipe
K: D
AG|FAdg fdAG|FAdg fdAG|FAdf g2 fg|(3efd (3cdB (3ABG (3FED|
FAdg fdAG|FAdg fdAG|FAdf gbag|(3fed (3edc d2 :|
fg|afdf g2 fg|(3efd (3cdB (3ABG (3FED|FAdf g2 fg|\
(3efd (3cdB A2 FG|afdf g2 fg|(3efd (3cdB (3ABG (3FED|\
FAdf GBAG|(3fed (3edc d2 :|
